X:11
T:CAPTMGN- Captain McCan [McKean/ Magan]
S:from 'The Beggar's Wedding', 1729
Q:1/4=120
L:1/4
M:6/4
K:Gm
G|GABB2d|cAFF2A|BdBcBA|GGGGG2::\
d|d3/2 e/dd2d|c3/2 d/cc2c|d3/2 e/dgfe|\
d(f2f2)d|fedf2d|cABc2A|BdBcA^F|GGGGG2|]

